resources/svg/user-2-fill.svg

<svg fill="currentColor" viewBox="0 0 24 24" xmlns="http://www.w3.org/2000/svg"><path d="M11 14.0619V20H13V14.0619C16.9463 14.554 20 17.9204 20 22H4C4 17.9204 7.05369 14.554 11 14.0619ZM12 13C8.685 13 6 10.315 6 7C6 3.685 8.685 1 12 1C15.315 1 18 3.685 18 7C18 10.315 15.315 13 12 13Z"/></svg>

<svg xmlns="http://www.w3.org/2000/svg" viewBox="0 0 24 24" fill="currentColor">
    <g>
        <path fill="none" d="M0 0h24v24H0z"/>
        <path d="M11 14.062V20h2v-5.938c3.946.492 7 3.858 7 7.938H4a8.001 8.001 0 0 1 7-7.938zM12 13c-3.315 0-6-2.685-6-6s2.685-6 6-6 6 2.685 6 6-2.685 6-6 6z"/>
    </g>
</svg>
